svg/u1f9be.svg

<svg viewBox="0 0 128 128" xmlns="http://www.w3.org/2000/svg">
  <g>
    <path d="M69.19,71.88c-19.34-0.75-25.48,11.45-32.74,16.57c-5.57,3.93-14.76,3.28-14.76,3.28 c-6.98,1.2-11.57,5.04-11.57,11.94c0,6.55,3.53,12.91,12.93,12.91l63.22-2.2C86.27,114.38,88.85,72.64,69.19,71.88z" fill="#D3CAC3"/>
    <g>
      <path d="M9.96,84.32l19.91-50.01l13.81,5.3c0,0-4.6,24.51-5.13,30.6c-0.53,6.09,5.13,20.37,3.95,32.98 c-1.32,14.13-6.89,17.83-17.52,19.04c-7.44,0.85-15.83-2.52-18.16-6.79C3.38,109.14,2.39,101.26,9.96,84.32z" fill="#90A4AE"/>
      <path d="M28.43,37.83c0.77-0.05,1.92-0.37,3.97,2.11c1.52,1.84,4.92,4.98,8.9,5.19 c0.69-3.36,1.19-5.71,1.19-5.71l-12.63-5.1L28.43,37.83z" fill="#466B7D"/>
    </g>
    <g>
      <linearGradient id="SVGID_1_" gradientUnits="userSpaceOnUse" x1="42.2342" x2="-3.6563" y1="41.4291" y2="163.1163">
        <stop offset="0.3085" stop-color="#D3CAC3"/>
        <stop offset="0.7444" stop-color="#6D94A5"/>
      </linearGradient>
      <path d="M14.13,98.73c0,0,15.13-45.62,21.08-62.25l-5.35-2.16L9.96,84.32 c-7.57,16.94-6.58,24.81-3.14,31.12c2.33,4.28,9.16,7.86,16.6,7.01c1.84-0.21,3.48-0.57,4.97-1.07 C23.09,112.75,14.13,98.73,14.13,98.73z" fill="url(#SVGID_1_)"/>
      <path d="M28.43,37.83c0.77-0.05,1.92-0.37,3.97,2.11c1.52,1.84,6.11,5.86,10.09,6.07 c0.69-3.36,1.18-6.39,1.18-6.39l-13.81-5.3L28.43,37.83z" fill="#466B7D"/>
      <path d="M39.09,76.07c0,0,0.06,5.87-4.94,10.17c-7.74,6.66-23.47,2.86-26.26,21.28 c-0.74,4.87-2.74,4.06-2.74,4.06s2.6,11.75,17.94,10.9c0,0,0,0,0,0c11.31-1.01,17.63-9.15,19.07-18.43 C43.67,94.4,39.09,76.07,39.09,76.07z" fill="#466B7D"/>
    </g>
    <linearGradient id="SVGID_2_" gradientUnits="userSpaceOnUse" x1="53.6493" x2="53.6493" y1="100.495" y2="122.0381">
      <stop offset="0.2923" stop-color="#D3CAC3"/>
      <stop offset="0.9998" stop-color="#6D94A5"/>
    </linearGradient>
    <path d="M81.58,71.13c-25.26,0-32.72,7.64-38.7,13.78c-2.92,3-5.23,5.37-9.31,6.43 c-3.6,0.94-9.18,2.09-10.8,2.42c-0.02,0-0.04,0.01-0.06,0.01c-7.86,1.36-12.54,6.85-12.54,14.68c0,3.93,1.31,7.35,3.79,9.87 c1.95,1.99,5.64,4.35,12.1,4.35h0.05l0.05,0l68.95-2.27c0,0,6.21-33.08-3.09-44.41C89.4,72.81,85.79,71.13,81.58,71.13L81.58,71.13 z" fill="url(#SVGID_2_)"/>
    <path d="M76.08,80.35C58.7,77.27,51.93,86.21,42.5,93.56c-4.28,3.34-15.86,4.56-15.86,4.56 c-6.98,1.2-11.57,5.04-11.57,11.94c0,7.18,3.53,12.56,12.93,12.56l63.22-2.2C91.22,120.43,95.45,83.78,76.08,80.35z" fill="#90A4AE"/>
    <path d="M70.82,88.15c0.03-4.01-0.08-7.17-0.16-9.47l0-0.12c-0.1-2.86-0.46-5.05-0.93-6.75 c-0.2,0.03-0.41,0.05-0.61,0.08c-4.25-0.27-8.48,0.6-8.48,0.6s4.87,1.23,5.41,9.04c0.18,2.59,0.25,3.26,0.19,7.5 c-0.47,34.51,27.89,31.43,27.89,31.43l0.31-1.71C77.52,115.67,70.68,106.81,70.82,88.15z" fill="#466B7D"/>
    <g>
      <circle cx="28.27" cy="110.96" fill="#466B7D" r="7.42"/>
      <circle cx="28.45" cy="109.74" fill="#A38E7A" r="6.55"/>
      <radialGradient id="SVGID_3_" cx="26.6683" cy="105.7215" gradientUnits="userSpaceOnUse" r="10.0236">
        <stop offset="0" stop-color="#FFFFFF"/>
        <stop offset="0.921" stop-color="#CDD7DB" stop-opacity="0"/>
      </radialGradient>
      <circle cx="28.45" cy="109.74" fill="url(#SVGID_3_)" r="6.55"/>
      <circle cx="29.39" cy="110.16" fill="#C6B3A1" r="5.39"/>
    </g>
    <path d="M121.79,88.89l0.02,0c0.01-17.13-14.62-28.3-31.06-27.66C75.56,61.83,67.48,71.9,67.48,71.9 s4.67,4.46,2.5,16.15c0.01,0.01,0.01,0.01,0.02,0.02c-0.08,0.32-0.15,0.65-0.22,0.98c-2.83,14.38,6.53,28.33,20.9,31.16 c14.37,2.83,28.31-6.54,31.13-20.92C122.51,95.74,122.47,92.22,121.79,88.89z" fill="#90A4AE"/>
    <linearGradient id="SVGID_4_" gradientUnits="userSpaceOnUse" x1="67.4783" x2="123.5049" y1="90.9669" y2="90.9669">
      <stop offset="0.2923" stop-color="#D3CAC3"/>
      <stop offset="0.9998" stop-color="#6D94A5"/>
    </linearGradient>
    <path d="M121.79,88.89l1.71,0.17c-0.45-16.8-16.31-28.47-32.75-27.83 C75.56,61.83,67.48,71.9,67.48,71.9s0.83,0.66,1.19,7.76c0.12,2.37,0.19,5.45,0.16,9.47c-0.12,16.06,7.49,28.25,21.86,31.08 c14.37,2.83,29.3-6.08,32.12-20.46C123.5,96.2,122.47,92.22,121.79,88.89z" fill="url(#SVGID_4_)"/>
    <circle cx="98.03" cy="92.75" fill="#90A4AE" r="25.74"/>
    <g>
      <circle cx="100.55" cy="94.98" fill="#466B7D" r="15.37"/>
      <circle cx="101.06" cy="92.86" fill="#A38E7A" r="14.25"/>
      <radialGradient id="SVGID_5_" cx="95.8207" cy="81.8918" gradientUnits="userSpaceOnUse" r="20.2565">
        <stop offset="0" stop-color="#FFFFFF"/>
        <stop offset="0.921" stop-color="#CDD7DB" stop-opacity="0"/>
      </radialGradient>
      <circle cx="101.06" cy="92.86" fill="url(#SVGID_5_)" r="14.25"/>
      <circle cx="102.82" cy="93.28" fill="#C6B3A1" r="12.5"/>
    </g>
    <g>
      <path d="M68.35,20.1l-8.67-4.53l-7.93,8.47l-0.25,6.79l12.76,4.65c0,0,6.56-3.38,6.83-3.51 s-0.11-5.54-0.11-5.54L68.35,20.1z" fill="#212121"/>
      <path d="M57.25,22.24c1.38-3.39,2.68-3.27,4.19-2.84c1.54,0.44,2.57,2.24,1.38,4.89l-2.05,6.11l6.88-2.1 l2.88,2.99l1.65,3.62c0,0-6.4,2.36-10.42,2.52s-6.23-3.14-6.23-3.14l-2.82-1.3C52.72,32.99,56.83,23.29,57.25,22.24z" fill="#466B7D"/>
      <path d="M64.23,13.41c0.12-2.62,0.26-5.99,0.26-6.06l-0.06-0.02c-0.4-0.08-3.03-0.59-6.42-0.98 c-3.92-0.45-6.04,0.24-7.96,2.45L38.9,20.09c-3.13,3.9-0.64,9.19-0.64,9.19l14.1,2.44c0,0,8.82-11.54,11.13-14.57 C63.62,16.52,63.91,15.04,64.23,13.41z" fill="#6D94A5"/>
      <path d="M38.26,29.28c0,0-2.48-5.29,0.64-9.19L50.06,8.79c1.91-2.21,4.04-2.9,7.96-2.45 c3.68,0.43,6.47,0.99,6.47,0.99s-0.35,8.92-0.45,9.08c-0.11,0.16-11.68,15.3-11.68,15.3L38.26,29.28z" fill="#D3CAC3"/>
      <polygon fill="#90A4AE" points="45.97,22.63 60.56,7.93 62.21,19.27 53.41,30.4 48.49,25.64 "/>
      <path d="M68.4,11.42c-0.81-2.65-1.68-3.47-3.91-4.08c-4.32-1.19-7.45,3.49-4.81,8.23 c2.87,5.16,7,13.66,7,13.66l6.36,5.09c0.92-0.34,1.97-1.95,1.19-4.57L68.4,11.42z" fill="#90A4AE"/>
      <path d="M67.33,9.54c-0.12-0.11-0.03-0.76-0.95-1.42c-0.56-0.4-1.24-0.61-1.9-0.79 c-4.32-1.19-7.45,3.49-4.81,8.23c2.34,4.21,6.89,13.56,6.89,13.56s0.68,2.4,1.12,2.52c0.54,0.14,1.11-0.2,1.39-0.68 c0.28-0.48,0.08-0.95,0.05-1.5c0,0-6.37-13.02-7-14.21S66.34,8.64,67.33,9.54z" fill="#466B7D"/>
      <g>
        <circle cx="64.55" cy="12.72" fill="#466B7D" r="4.6"/>
        <circle cx="64.94" cy="12.22" fill="#A38E7A" r="4.29"/>
        <radialGradient id="SVGID_6_" cx="61.144" cy="5.6809" gradientTransform="matrix(0.9775 0.2108 -0.2108 0.9775 5.7795 -9.0382)" gradientUnits="userSpaceOnUse" r="6.5677">
          <stop offset="0" stop-color="#FFFFFF"/>
          <stop offset="0.921" stop-color="#CDD7DB" stop-opacity="0"/>
        </radialGradient>
        <circle cx="64.94" cy="12.22" fill="url(#SVGID_6_)" r="4.29"/>
        <circle cx="65.7" cy="12.25" fill="#C6B3A1" r="3.46"/>
      </g>
      <g>
        <circle cx="70.66" cy="31.29" fill="#466B7D" r="3.96"/>
        <circle cx="70.86" cy="31.11" fill="#A38E7A" r="3.52"/>
        <radialGradient id="SVGID_7_" cx="71.1254" cy="23.3634" gradientTransform="matrix(0.9775 0.2108 -0.2108 0.9775 5.7795 -9.0382)" gradientUnits="userSpaceOnUse" r="5.3865">
          <stop offset="0" stop-color="#FFFFFF"/>
          <stop offset="0.921" stop-color="#CDD7DB" stop-opacity="0"/>
        </radialGradient>
        <circle cx="70.86" cy="31.11" fill="url(#SVGID_7_)" r="3.52"/>
        <circle cx="71.58" cy="31.3" fill="#C6B3A1" r="2.84"/>
      </g>
      <path d="M27.73,27.46c1.25-6.16,6.84-8.05,12.21-7.55c4.69,0.43,7.59,1.15,7.59,1.15 c-0.57,2.14-0.59,17.32-1.83,19.16c-1.38,2.03-8.15,0.61-12.48-2.65c-2.57-1.93-4.07-1.47-4.07-1.47S26.96,31.22,27.73,27.46z" fill="#D9C6B6"/>
      <ellipse cx="43.51" cy="30.68" fill="#90A4AE" rx="10.44" ry="9.86" transform="matrix(0.2576 -0.9662 0.9662 0.2576 2.6603 64.8204)"/>
      <path d="M38.13,29.42c0.8-3.18,4.02-5.63,8.01-4.38c3.17,0.99,18.86,6.8,18.86,6.8l0.36,7.67 c0,0-18.16-0.72-19.9-0.92C37.93,37.72,37.32,32.64,38.13,29.42z" fill="#466B7D"/>
      <path d="M67.91,36.95c0.39-1.8-0.69-3.56-2.42-4.08l0-0.03c0,0-14.51-5.46-17.76-6.17 c-3.25-0.7-6.45,1.36-7.15,4.61c-0.7,3.25,1.36,6.45,4.61,7.15c1.59,0.34,16.94,1.16,19.15,1.28c0.04,0,0.09,0.01,0.13,0.01 c0.09,0,0.14,0.01,0.14,0.01l0-0.02C66.19,39.63,67.56,38.54,67.91,36.95z" fill="#90A4AE"/>
      <g>
        <circle cx="47.29" cy="33.09" fill="#466B7D" r="4.6"/>
        <circle cx="47.68" cy="32.6" fill="#A38E7A" r="4.29"/>
        <radialGradient id="SVGID_8_" cx="48.5663" cy="29.2326" gradientTransform="matrix(0.9775 0.2108 -0.2108 0.9775 5.7795 -9.0382)" gradientUnits="userSpaceOnUse" r="6.5677">
          <stop offset="0" stop-color="#FFFFFF"/>
          <stop offset="0.921" stop-color="#CDD7DB" stop-opacity="0"/>
        </radialGradient>
        <circle cx="47.68" cy="32.6" fill="url(#SVGID_8_)" r="4.29"/>
        <circle cx="48.42" cy="32.86" fill="#C6B3A1" r="3.46"/>
      </g>
    </g>
  </g>
</svg>

<svg viewBox="0 0 128 128" xmlns="http://www.w3.org/2000/svg">
  <defs>
    <linearGradient id="SVGID_1_" gradientUnits="userSpaceOnUse" x1="42.2342" x2="-3.6563" y1="41.4291" y2="163.1163">
      <stop offset="0.3085" stop-color="#D3CAC3"/>
      <stop offset="0.7444" stop-color="#6D94A5"/>
    </linearGradient>
    <linearGradient id="SVGID_2_" gradientUnits="userSpaceOnUse" x1="53.6493" x2="53.6493" y1="100.495" y2="122.0381">
      <stop offset="0.2923" stop-color="#D3CAC3"/>
      <stop offset="0.9998" stop-color="#6D94A5"/>
    </linearGradient>
    <radialGradient id="SVGID_3_" cx="26.6683" cy="105.7215" gradientUnits="userSpaceOnUse" r="10.0236">
      <stop offset="0" stop-color="#FFFFFF"/>
      <stop offset="0.921" stop-color="#CDD7DB" stop-opacity="0"/>
    </radialGradient>
    <linearGradient id="SVGID_4_" gradientUnits="userSpaceOnUse" x1="67.4783" x2="123.5049" y1="90.9669" y2="90.9669">
      <stop offset="0.2923" stop-color="#D3CAC3"/>
      <stop offset="0.9998" stop-color="#6D94A5"/>
    </linearGradient>
    <radialGradient id="SVGID_5_" cx="95.8207" cy="81.8918" gradientUnits="userSpaceOnUse" r="20.2565">
      <stop offset="0" stop-color="#FFFFFF"/>
      <stop offset="0.921" stop-color="#CDD7DB" stop-opacity="0"/>
    </radialGradient>
    <radialGradient id="SVGID_6_" cx="64.888423" cy="-4.372833" gradientTransform="matrix(0.9775 0.2108 -0.2108 0.9775 0 0)" gradientUnits="userSpaceOnUse" r="6.5677">
      <stop offset="0" stop-color="#FFFFFF"/>
      <stop offset="0.921" stop-color="#CDD7DB" stop-opacity="0"/>
    </radialGradient>
    <radialGradient id="SVGID_7_" cx="74.869823" cy="13.309667" gradientTransform="matrix(0.9775 0.2108 -0.2108 0.9775 0 0)" gradientUnits="userSpaceOnUse" r="5.3865">
      <stop offset="0" stop-color="#FFFFFF"/>
      <stop offset="0.921" stop-color="#CDD7DB" stop-opacity="0"/>
    </radialGradient>
    <radialGradient id="SVGID_8_" cx="52.310723" cy="19.178867" gradientTransform="matrix(0.9775 0.2108 -0.2108 0.9775 0 0)" gradientUnits="userSpaceOnUse" r="6.5677">
      <stop offset="0" stop-color="#FFFFFF"/>
      <stop offset="0.921" stop-color="#CDD7DB" stop-opacity="0"/>
    </radialGradient>
  </defs>
  <path d="M69.19,71.88 C49.85,71.13 43.71,83.33 36.45,88.45 C30.88,92.38 21.69,91.73 21.69,91.73 C14.71,92.93 10.12,96.77 10.12,103.67 C10.12,110.22 13.65,116.58 23.05,116.58 L86.27,114.38 C86.27,114.38 88.85,72.64 69.19,71.88 Z" fill="#D3CAC3"/>
  <path d="M9.96,84.32 L29.87,34.31 L43.68,39.61 C43.68,39.61 39.08,64.12 38.55,70.21 C38.02,76.3 43.68,90.58 42.5,103.19 C41.18,117.32 35.61,121.02 24.98,122.23 C17.54,123.08 9.15,119.71 6.82,115.44 C3.38,109.14 2.39,101.26 9.96,84.32 Z" fill="#90A4AE"/>
  <path d="M28.43,37.83 C29.2,37.78 30.35,37.46 32.4,39.94 C33.92,41.78 37.32,44.92 41.3,45.13 C41.99,41.77 42.49,39.42 42.49,39.42 L29.86,34.32 L28.43,37.83 Z" fill="#466B7D"/>
  <path d="M14.13,98.73 C14.13,98.73 29.26,53.11 35.21,36.48 L29.86,34.32 L9.96,84.32 C2.39,101.26 3.38,109.13 6.82,115.44 C9.15,119.72 15.98,123.3 23.42,122.45 C25.26,122.24 26.9,121.88 28.39,121.38 C23.09,112.75 14.13,98.73 14.13,98.73 Z" fill="url(#SVGID_1_)"/>
  <path d="M28.43,37.83 C29.2,37.78 30.35,37.46 32.4,39.94 C33.92,41.78 38.51,45.8 42.49,46.01 C43.18,42.65 43.67,39.62 43.67,39.62 L29.86,34.32 L28.43,37.83 Z" fill="#466B7D"/>
  <path d="M39.09,76.07 C39.09,76.07 39.15,81.94 34.15,86.24 C26.41,92.9 10.68,89.1 7.89,107.52 C7.15,112.39 5.15,111.58 5.15,111.58 C5.15,111.58 7.75,123.33 23.09,122.48 C23.09,122.48 23.09,122.48 23.09,122.48 C34.4,121.47 40.72,113.33 42.16,104.05 C43.67,94.4 39.09,76.07 39.09,76.07 Z" fill="#466B7D"/>
  <path d="M81.58,71.13 C56.32,71.13 48.86,78.77 42.88,84.91 C39.96,87.91 37.65,90.28 33.57,91.34 C29.97,92.28 24.39,93.43 22.77,93.76 C22.75,93.76 22.73,93.77 22.71,93.77 C14.85,95.13 10.17,100.62 10.17,108.45 C10.17,112.38 11.48,115.8 13.96,118.32 C15.91,120.31 19.6,122.67 26.06,122.67 L26.11,122.67 L26.16,122.67 L95.11,120.4 C95.11,120.4 101.32,87.32 92.02,75.99 C89.4,72.81 85.79,71.13 81.58,71.13 L81.58,71.13 Z" fill="url(#SVGID_2_)"/>
  <path d="M76.08,80.35 C58.7,77.27 51.93,86.21 42.5,93.56 C38.22,96.9 26.64,98.12 26.64,98.12 C19.66,99.32 15.07,103.16 15.07,110.06 C15.07,117.24 18.6,122.62 28,122.62 L91.22,120.42 C91.22,120.43 95.45,83.78 76.08,80.35 Z" fill="#90A4AE"/>
  <path d="M70.82,88.15 C70.85,84.14 70.74,80.98 70.66,78.68 L70.66,78.56 C70.56,75.7 70.2,73.51 69.73,71.81 C69.53,71.84 69.32,71.86 69.12,71.89 C64.87,71.62 60.64,72.49 60.64,72.49 C60.64,72.49 65.51,73.72 66.05,81.53 C66.23,84.12 66.3,84.79 66.24,89.03 C65.77,123.54 94.13,120.46 94.13,120.46 L94.44,118.75 C77.52,115.67 70.68,106.81 70.82,88.15 Z" fill="#466B7D"/>
  <path d="M35.69,110.96 A7.42 7.42 0 1 1 20.85,110.96 A7.42 7.42 0 1 1 35.69,110.96 Z" fill="#466B7D"/>
  <path d="M35,109.74 A6.55 6.55 0 1 1 21.9,109.74 A6.55 6.55 0 1 1 35,109.74 Z" fill="#A38E7A"/>
  <path d="M35,109.74 A6.55 6.55 0 1 1 21.9,109.74 A6.55 6.55 0 1 1 35,109.74 Z" fill="url(#SVGID_3_)"/>
  <path d="M34.78,110.16 A5.39 5.39 0 1 1 24,110.16 A5.39 5.39 0 1 1 34.78,110.16 Z" fill="#C6B3A1"/>
  <path d="M121.79,88.89 L121.81,88.89 C121.82,71.76 107.19,60.59 90.75,61.23 C75.56,61.83 67.48,71.9 67.48,71.9 C67.48,71.9 72.15,76.36 69.98,88.05 C69.99,88.06 69.99,88.06 70,88.07 C69.92,88.39 69.85,88.72 69.78,89.05 C66.95,103.43 76.31,117.38 90.68,120.21 C105.05,123.04 118.99,113.67 121.81,99.29 C122.51,95.74 122.47,92.22 121.79,88.89 Z" fill="#90A4AE"/>
  <path d="M121.79,88.89 L123.5,89.06 C123.05,72.26 107.19,60.59 90.75,61.23 C75.56,61.83 67.48,71.9 67.48,71.9 C67.48,71.9 68.31,72.56 68.67,79.66 C68.79,82.03 68.86,85.11 68.83,89.13 C68.71,105.19 76.32,117.38 90.69,120.21 C105.06,123.04 119.99,114.13 122.81,99.75 C123.5,96.2 122.47,92.22 121.79,88.89 Z" fill="url(#SVGID_4_)"/>
  <path d="M123.77,92.75 A25.74 25.74 0 1 1 72.29,92.75 A25.74 25.74 0 1 1 123.77,92.75 Z" fill="#90A4AE"/>
  <path d="M115.92,94.98 A15.37 15.37 0 1 1 85.18,94.98 A15.37 15.37 0 1 1 115.92,94.98 Z" fill="#466B7D"/>
  <path d="M115.31,92.86 A14.25 14.25 0 1 1 86.81,92.86 A14.25 14.25 0 1 1 115.31,92.86 Z" fill="#A38E7A"/>
  <path d="M115.31,92.86 A14.25 14.25 0 1 1 86.81,92.86 A14.25 14.25 0 1 1 115.31,92.86 Z" fill="url(#SVGID_5_)"/>
  <path d="M115.32,93.28 A12.5 12.5 0 1 1 90.32,93.28 A12.5 12.5 0 1 1 115.32,93.28 Z" fill="#C6B3A1"/>
  <path d="M68.35,20.1 L59.68,15.57 L51.75,24.04 L51.5,30.83 L64.26,35.48 C64.26,35.48 70.82,32.1 71.09,31.97 C71.36,31.84 70.98,26.43 70.98,26.43 L68.35,20.1 Z" fill="#212121"/>
  <path d="M57.25,22.24 C58.63,18.85 59.93,18.97 61.44,19.4 C62.98,19.84 64.01,21.64 62.82,24.29 L60.77,30.4 L67.65,28.3 L70.53,31.29 L72.18,34.91 C72.18,34.91 65.78,37.27 61.76,37.43 C57.74,37.59 55.53,34.29 55.53,34.29 L52.71,32.99 C52.72,32.99 56.83,23.29 57.25,22.24 Z" fill="#466B7D"/>
  <path d="M64.23,13.41 C64.35,10.79 64.49,7.42 64.49,7.35 L64.43,7.33 C64.03,7.25 61.4,6.74 58.01,6.35 C54.09,5.9 51.97,6.59 50.05,8.8 L38.9,20.09 C35.77,23.99 38.26,29.28 38.26,29.28 L52.36,31.72 C52.36,31.72 61.18,20.18 63.49,17.15 C63.62,16.52 63.91,15.04 64.23,13.41 Z" fill="#6D94A5"/>
  <path d="M38.26,29.28 C38.26,29.28 35.78,23.99 38.9,20.09 L50.06,8.79 C51.97,6.58 54.1,5.89 58.02,6.34 C61.7,6.77 64.49,7.33 64.49,7.33 C64.49,7.33 64.14,16.25 64.04,16.41 C63.93,16.57 52.36,31.71 52.36,31.71 L38.26,29.28 Z" fill="#D3CAC3"/>
  <path d="M45.97,22.63 L60.56,7.93 L62.21,19.27 L53.41,30.4 L48.49,25.64 Z" fill="#90A4AE"/>
  <path d="M68.4,11.42 C67.59,8.77 66.72,7.95 64.49,7.34 C60.17,6.15 57.04,10.83 59.68,15.57 C62.55,20.73 66.68,29.23 66.68,29.23 L73.04,34.32 C73.96,33.98 75.01,32.37 74.23,29.75 L68.4,11.42 Z" fill="#90A4AE"/>
  <path d="M67.33,9.54 C67.21,9.43 67.3,8.78 66.38,8.12 C65.82,7.72 65.14,7.51 64.48,7.33 C60.16,6.14 57.03,10.82 59.67,15.56 C62.01,19.77 66.56,29.12 66.56,29.12 C66.56,29.12 67.24,31.52 67.68,31.64 C68.22,31.78 68.79,31.44 69.07,30.96 C69.35,30.48 69.15,30.01 69.12,29.46 C69.12,29.46 62.75,16.44 62.12,15.25 C61.49,14.06 66.34,8.64 67.33,9.54 Z" fill="#466B7D"/>
  <path d="M69.15,12.72 A4.6 4.6 0 1 1 59.95,12.72 A4.6 4.6 0 1 1 69.15,12.72 Z" fill="#466B7D"/>
  <path d="M69.23,12.22 A4.29 4.29 0 1 1 60.65,12.22 A4.29 4.29 0 1 1 69.23,12.22 Z" fill="#A38E7A"/>
  <path d="M69.23,12.22 A4.29 4.29 0 1 1 60.65,12.22 A4.29 4.29 0 1 1 69.23,12.22 Z" fill="url(#SVGID_6_)"/>
  <path d="M69.16,12.25 A3.46 3.46 0 1 1 62.24,12.25 A3.46 3.46 0 1 1 69.16,12.25 Z" fill="#C6B3A1"/>
  <path d="M74.62,31.29 A3.96 3.96 0 1 1 66.7,31.29 A3.96 3.96 0 1 1 74.62,31.29 Z" fill="#466B7D"/>
  <path d="M74.38,31.11 A3.52 3.52 0 1 1 67.34,31.11 A3.52 3.52 0 1 1 74.38,31.11 Z" fill="#A38E7A"/>
  <path d="M74.38,31.11 A3.52 3.52 0 1 1 67.34,31.11 A3.52 3.52 0 1 1 74.38,31.11 Z" fill="url(#SVGID_7_)"/>
  <path d="M74.42,31.3 A2.84 2.84 0 1 1 68.74,31.3 A2.84 2.84 0 1 1 74.42,31.3 Z" fill="#C6B3A1"/>
  <path d="M27.73,27.46 C28.98,21.3 34.57,19.41 39.94,19.91 C44.63,20.34 47.53,21.06 47.53,21.06 C46.96,23.2 46.94,38.38 45.7,40.22 C44.32,42.25 37.55,40.83 33.22,37.57 C30.65,35.64 29.15,36.1 29.15,36.1 C29.15,36.1 26.96,31.22 27.73,27.46 Z" fill="#D9C6B6"/>
  <path d="M46.201,20.597 C51.462,22 54.524,27.653 53.038,33.224 C51.553,38.795 46.084,42.174 40.822,40.771 C35.561,39.369 32.499,33.715 33.985,28.144 C35.47,22.573 40.939,19.194 46.201,20.597 Z" fill="#90A4AE"/>
  <path d="M38.13,29.42 C38.93,26.24 42.15,23.79 46.14,25.04 C49.31,26.03 65,31.84 65,31.84 L65.36,39.51 C65.36,39.51 47.2,38.79 45.46,38.59 C37.93,37.72 37.32,32.64 38.13,29.42 Z" fill="#466B7D"/>
  <path d="M67.91,36.95 C68.3,35.15 67.22,33.39 65.49,32.87 L65.49,32.84 C65.49,32.84 50.98,27.38 47.73,26.67 C44.48,25.97 41.28,28.03 40.58,31.28 C39.88,34.53 41.94,37.73 45.19,38.43 C46.78,38.77 62.13,39.59 64.34,39.71 C64.38,39.71 64.43,39.72 64.47,39.72 C64.56,39.72 64.61,39.73 64.61,39.73 L64.61,39.71 C66.19,39.63 67.56,38.54 67.91,36.95 Z" fill="#90A4AE"/>
  <path d="M51.89,33.09 A4.6 4.6 0 1 1 42.69,33.09 A4.6 4.6 0 1 1 51.89,33.09 Z" fill="#466B7D"/>
  <path d="M51.97,32.6 A4.29 4.29 0 1 1 43.39,32.6 A4.29 4.29 0 1 1 51.97,32.6 Z" fill="#A38E7A"/>
  <path d="M51.97,32.6 A4.29 4.29 0 1 1 43.39,32.6 A4.29 4.29 0 1 1 51.97,32.6 Z" fill="url(#SVGID_8_)"/>
  <path d="M51.88,32.86 A3.46 3.46 0 1 1 44.96,32.86 A3.46 3.46 0 1 1 51.88,32.86 Z" fill="#C6B3A1"/>
</svg>
